X:1
T:Yucatán, 87.87 D
T:Yucatán, 87.87 D
T:Norman M. Mattice, 1890
T:Public Domain Courtesy of the Cyber Hymnal™
C:Norman M. Mattice, 1890
Z:Public Domain
Z:Courtesy of the Cyber Hymnal™
%%score 1 ( 2 3 )
L:1/8
Q:1/4=95
M:3/4
K:C
V:1 treble 
V:2 bass 
V:3 bass 
V:1
 [CE]>[DF] | [EG]3 [Ge] [Ec]>[Fd] | [FA]2 [Ac]2 [GB]>[FA] | [EG]3 [FA] [DF]>[EG] | %4
 [CE]4 [CE]>[DF] | [EG]3 [Ge] [Ec]>[Fd] | [FA]2 [Ac]2 [GB]>[FA] | [EG]3 [FG] [FA]>[FB] | %8
 [Ec]4 [DB]>[Ec] | [Fd]3 [FG] [FA]>[FG] | [Ec]2 [EG]2 [FA]>[FA] | [^Fd]3 [Fe] [Fd]>[Fe] | %12
 [Gd]4 [CE]>[DF] | [EG]3 [Ge] [Ec]>[Fd] | [FA]2 [Ac]2 [GB]>[^DA] | [EG]3"^riten." [EG] [FA]>[FB] | %16
 [Ec]6 |] %17
V:2
 [C,G,]>[C,G,] | [C,C]3 [C,C] [C,C]>[C,C] | [F,C]2 [F,C]2 [F,C]>[F,C] | %3
 [G,C]3 [G,B,] [G,B,]>[G,,G,B,] | [C,G,]4 [C,G,]>[C,G,] | [C,C]3 [C,C] [C,C]>[C,C] | %6
 [F,C]2 [F,C]2 [F,C]>[F,C] | [G,C]3 [G,B,] [G,C]>[G,,G,D] | [C,C]4 G,>G, | %9
 [G,B,]3 [G,B,] [G,C]>[G,D] | [G,C]2 [G,C]2 [F,C]>[F,C] | [D,C]3 [D,C] [D,C]>[D,C] | %12
 [G,B,]4 [C,G,]>[C,G,] | [C,C]3 [C,C] [C,C]>[C,C] | [F,C]2 [F,C]2 [F,C]>[^F,C] | %15
 [G,C]3 [G,C] [G,B,]>[G,,G,] | [C,G,]6 |] %17
V:3
 x2 | x6 | x6 | x6 | x6 | x6 | x6 | x6 | x4 G,>G, | x6 | x6 | x6 | x6 | x6 | x6 | x6 | x6 |] %17

